X: 12332
T: Falcarragh, The
R: hornpipe
M: 4/4
K: Gmajor
dc|:BGcG dGeG|defa ~g3 f|gece dBGB|Add^c ded=c|
BGcG dGeG|defa ~g3 f|gece dBAc|1 (3Bcd BA G3 A:|2 (3Bcd BA G2 ga||
bd^cd adcd|gdBA ~G3 f|gece dBGB|Add^c dega|
bd^cd adcd|gdBA ~G3 f|gece dBAc|(3Bcd BA G3 ga|
bd^cd adcd|gdBA ~G3 f|gece dBGB|Add^c ded=c|
BGcG dGeG|defa ~g3 f|gece dBAc|(3Bcd BA G3 A||

